plasma/desktoptheme/ROUNDED-DARK/icons/kaffeine.svg

<svg xmlns="http://www.w3.org/2000/svg" width="22" height="22" version="1.1">
 <g id="kaffeine">
  <rect id="rect838" style="opacity:0.001" width="22" height="22" x="0" y="0"/>
  <path id="path825" style="opacity:1;fill:#eff0f1" d="M 11 3 A 8 8 0 0 0 3 11 A 8 8 0 0 0 11 19 A 8 8 0 0 0 19 11 A 8 8 0 0 0 11 3 z M 11 4 A 7 7 0 0 1 18 11 A 7 7 0 0 1 11 18 A 7 7 0 0 1 4 11 A 7 7 0 0 1 11 4 z M 10.091797 8 A 1.0673336 1.1762744 0 0 0 9 9.1757812 L 9 11 L 9 12.824219 A 1.0673336 1.1762744 0 0 0 10.601562 13.841797 L 12.033203 12.929688 L 13.466797 12.017578 A 1.0673336 1.1762744 0 0 0 13.466797 9.9804688 L 12.033203 9.0703125 L 10.601562 8.1582031 A 1.0673336 1.1762744 0 0 0 10.091797 8 z"/>
 </g>
</svg>

<svg xmlns="http://www.w3.org/2000/svg" id="svg5" width="32" height="32" version="1.1">
 <g id="22-22-kaffeine" transform="translate(32.000001,10.000001)">
  <rect id="rect838" style="opacity:0.001" width="22" height="22" x="0" y="0"/>
  <path id="path825" style="opacity:1;fill:#eff0f1" d="m 11,3 a 8,8 0 0 0 -8,8 8,8 0 0 0 8,8 8,8 0 0 0 8,-8 8,8 0 0 0 -8,-8 z m 0,1 a 7,7 0 0 1 7,7 7,7 0 0 1 -7,7 7,7 0 0 1 -7,-7 7,7 0 0 1 7,-7 z M 10.091797,8 A 1.0673336,1.1762744 0 0 0 9,9.1757812 V 11 12.824219 a 1.0673336,1.1762744 0 0 0 1.601562,1.017578 l 1.431641,-0.912109 1.433594,-0.91211 a 1.0673336,1.1762744 0 0 0 0,-2.0371092 L 12.033203,9.0703125 10.601562,8.1582031 A 1.0673336,1.1762744 0 0 0 10.091797,8 Z"/>
 </g>
 <g id="kaffeine">
  <rect id="rect818" style="opacity:0.001" width="32" height="32" x="0" y="0"/>
  <path id="path830" style="opacity:1;fill:#eff0f1" d="M 16 4 A 12 12 0 0 0 4 16 A 12 12 0 0 0 16 28 A 12 12 0 0 0 28 16 A 12 12 0 0 0 16 4 z M 16 5 A 11.000001 11.000001 0 0 1 27 16 A 11.000001 11.000001 0 0 1 16 27 A 11.000001 11.000001 0 0 1 5 16 A 11.000001 11.000001 0 0 1 16 5 z M 14.746094 11 A 1.7076446 1.9604396 0 0 0 13 12.960938 L 13 16 L 13 19.041016 A 1.7076446 1.9604396 0 0 0 15.5625 20.736328 L 17.853516 19.216797 L 20.146484 17.697266 A 1.7076446 1.9604396 0 0 0 20.146484 14.300781 L 17.853516 12.785156 L 15.5625 11.263672 A 1.7076446 1.9604396 0 0 0 14.746094 11 z"/>
 </g>
</svg>
